src/img/github.svg

<svg viewBox="0 0 24 24" width="67" xmlns="http://www.w3.org/2000/svg"><path d="m12 0c-6.63 0-12 5.373-12 12 0 5.303 3.438 9.8 8.205 11.385.6.113.82-.258.82-.577 0-.285-.01-1.04-.015-2.04-3.338.724-4.042-1.61-4.042-1.61-.546-1.385-1.335-1.755-1.335-1.755-1.087-.744.084-.729.084-.729 1.205.084 1.838 1.236 1.838 1.236 1.07 1.835 2.809 1.305 3.495.998.108-.776.417-1.305.76-1.605-2.665-.3-5.466-1.332-5.466-5.93 0-1.31.465-2.38 1.235-3.22-.135-.303-.54-1.523.105-3.176 0 0 1.005-.322 3.3 1.23.96-.267 1.98-.399 3-.405 1.02.006 2.04.138 3 .405 2.28-1.552 3.285-1.23 3.285-1.23.645 1.653.24 2.873.12 3.176.765.84 1.23 1.91 1.23 3.22 0 4.61-2.805 5.625-5.475 5.92.42.36.81 1.096.81 2.22 0 1.606-.015 2.896-.015 3.286 0 .315.21.69.825.57 4.801-1.574 8.236-6.074 8.236-11.369 0-6.627-5.373-12-12-12" fill="#fff" transform="translate(0 .297)"/></svg>

<?xml version="1.0" encoding="UTF-8"?>
<svg width="67" viewBox="0 0 24 24" version="1.1" xmlns="http://www.w3.org/2000/svg" xmlns:xlink="http://www.w3.org/1999/xlink">
    <title>github</title>
    <g id="Page-1" stroke="none" stroke-width="1" fill="none" fill-rule="evenodd">
        <g id="github" transform="translate(0.000000, 0.297000)" fill="#FFFFFF" fill-rule="nonzero">
            <path d="M12,0 C5.37,0 0,5.373 0,12 C0,17.303 3.438,21.8 8.205,23.385 C8.805,23.498 9.025,23.127 9.025,22.808 C9.025,22.523 9.015,21.768 9.01,20.768 C5.672,21.492 4.968,19.158 4.968,19.158 C4.422,17.773 3.633,17.403 3.633,17.403 C2.546,16.659 3.717,16.674 3.717,16.674 C4.922,16.758 5.555,17.91 5.555,17.91 C6.625,19.745 8.364,19.215 9.05,18.908 C9.158,18.132 9.467,17.603 9.81,17.303 C7.145,17.003 4.344,15.971 4.344,11.373 C4.344,10.063 4.809,8.993 5.579,8.153 C5.444,7.85 5.039,6.63 5.684,4.977 C5.684,4.977 6.689,4.655 8.984,6.207 C9.944,5.94 10.964,5.808 11.984,5.802 C13.004,5.808 14.024,5.94 14.984,6.207 C17.264,4.655 18.269,4.977 18.269,4.977 C18.914,6.63 18.509,7.85 18.389,8.153 C19.154,8.993 19.619,10.063 19.619,11.373 C19.619,15.983 16.814,16.998 14.144,17.293 C14.564,17.653 14.954,18.389 14.954,19.513 C14.954,21.119 14.939,22.409 14.939,22.799 C14.939,23.114 15.149,23.489 15.764,23.369 C20.565,21.795 24,17.295 24,12 C24,5.373 18.627,0 12,0" id="Path"></path>
        </g>
    </g>
</svg>
